X: 703
T: Jump Back Barley
C:Traditional
B: jims roots
M:4/4
L:1/8
Q: 1/4=100
K:Bb
V:1 
|:Bc | "Bb"dBFE DFBd |"F"cAFA cBFB | "Bb"dBFE DFBd | "F"cAFA "Bb"B2Bc |
     "Bb"dBFE DFBd |"F"cAFA cBFB | "Bb"dBFE DFBd | "F"cAFA "Bb"B2 :|
|: de | "B"fBBB gfed | "F"cFFF dcBA | "Eb"GEEE EFGE | "F"FGAB cde=e |
       "Bb"f2BB gfed | "F"cFFF dcBA | "Eb"GEEF "F"ABcA | "Bb"B2Bc B2 :|
% abcbook-tune_id 6298c25d654eaf7db292ee6f


% abcbook-boost 0
% abcbook-tablature 
% abcbook-transpose 
% abcbook-lastupdated 1654178399357
% abcbook-soundfonts 
% abcbook-repeats 1


